src/assets/background/board-empty.svg

<svg width="393" height="194" viewBox="0 0 393 194" fill="none" xmlns="http://www.w3.org/2000/svg">
<g id="board-empty">
<g id="BASE">
<mask id="path-1-inside-1_112_1993" fill="white">
<path fill-rule="evenodd" clip-rule="evenodd" d="M393 50V96V141V194H294.75H196.5H0V96V51V28.5V17L12 6H24.5625H49.125H98.25H196.5H245.625H272.111L296.556 50H393Z"/>
</mask>
<path d="M393 50H393.5V49.5H393V50ZM393 194V194.5H393.5V194H393ZM0 194H-0.5V194.5H0V194ZM0 17L-0.337862 16.6314L-0.5 16.78V17H0ZM12 6V5.5H11.8055L11.6621 5.63142L12 6ZM272.111 6L272.548 5.75718L272.405 5.5H272.111V6ZM296.556 50L296.118 50.2428L296.261 50.5H296.556V50ZM393 49.5H389.986V50.5H393V49.5ZM383.958 49.5H377.931V50.5H383.958V49.5ZM371.903 49.5H365.875V50.5H371.903V49.5ZM359.847 49.5H353.819V50.5H359.847V49.5ZM347.792 49.5H341.764V50.5H347.792V49.5ZM335.736 49.5H329.708V50.5H335.736V49.5ZM323.681 49.5H317.653V50.5H323.681V49.5ZM311.625 49.5H305.597V50.5H311.625V49.5ZM299.569 49.5H296.556V50.5H299.569V49.5ZM296.993 49.7572L295.465 47.0072L294.591 47.4928L296.118 50.2428L296.993 49.7572ZM292.409 41.5072L289.354 36.0072L288.48 36.4928L291.535 41.9928L292.409 41.5072ZM286.298 30.5072L283.243 25.0072L282.368 25.4928L285.424 30.9928L286.298 30.5072ZM280.187 19.5072L277.132 14.0072L276.257 14.4928L279.313 19.9928L280.187 19.5072ZM274.076 8.50718L272.548 5.75718L271.674 6.24282L273.202 8.99282L274.076 8.50718ZM272.111 5.5H268.8V6.5H272.111V5.5ZM262.179 5.5H255.557V6.5H262.179V5.5ZM248.936 5.5H245.625V6.5H248.936V5.5ZM245.625 5.5H242.555V6.5H245.625V5.5ZM236.414 5.5H230.273V6.5H236.414V5.5ZM224.133 5.5H217.992V6.5H224.133V5.5ZM211.852 5.5H205.711V6.5H211.852V5.5ZM199.57 5.5H196.5V6.5H199.57V5.5ZM196.5 5.5H193.43V6.5H196.5V5.5ZM187.289 5.5H181.148V6.5H187.289V5.5ZM175.008 5.5H168.867V6.5H175.008V5.5ZM162.727 5.5H156.586V6.5H162.727V5.5ZM150.445 5.5H144.305V6.5H150.445V5.5ZM138.164 5.5H132.023V6.5H138.164V5.5ZM125.883 5.5H119.742V6.5H125.883V5.5ZM113.602 5.5H107.461V6.5H113.602V5.5ZM101.32 5.5H98.25V6.5H101.32V5.5ZM98.25 5.5H95.1797V6.5H98.25V5.5ZM89.0391 5.5H82.8984V6.5H89.0391V5.5ZM76.7578 5.5H70.6172V6.5H76.7578V5.5ZM64.4766 5.5H58.3359V6.5H64.4766V5.5ZM52.1953 5.5H49.125V6.5H52.1953V5.5ZM49.125 5.5H46.0547V6.5H49.125V5.5ZM39.9141 5.5H33.7734V6.5H39.9141V5.5ZM27.6328 5.5H24.5625V6.5H27.6328V5.5ZM24.5625 5.5H21.4219V6.5H24.5625V5.5ZM15.1406 5.5H12V6.5H15.1406V5.5ZM11.6621 5.63142L8.66214 8.38142L9.33786 9.11858L12.3379 6.36858L11.6621 5.63142ZM2.66214 13.8814L-0.337862 16.6314L0.337862 17.3686L3.33786 14.6186L2.66214 13.8814ZM-0.5 17V19.875H0.5V17H-0.5ZM-0.5 25.625V28.5H0.5V25.625H-0.5ZM-0.5 28.5V31.3125H0.5V28.5H-0.5ZM-0.5 36.9375V42.5625H0.5V36.9375H-0.5ZM-0.5 48.1875V51H0.5V48.1875H-0.5ZM-0.5 51V53.8125H0.5V51H-0.5ZM-0.5 59.4375V65.0625H0.5V59.4375H-0.5ZM-0.5 70.6875V76.3125H0.5V70.6875H-0.5ZM-0.5 81.9375V87.5625H0.5V81.9375H-0.5ZM-0.5 93.1875V96H0.5V93.1875H-0.5ZM-0.5 96V99.0625H0.5V96H-0.5ZM-0.5 105.188V111.312H0.5V105.188H-0.5ZM-0.5 117.438V123.562H0.5V117.438H-0.5ZM-0.5 129.688V135.812H0.5V129.688H-0.5ZM-0.5 141.938V148.062H0.5V141.938H-0.5ZM-0.5 154.188V160.312H0.5V154.188H-0.5ZM-0.5 166.438V172.562H0.5V166.438H-0.5ZM-0.5 178.688V184.812H0.5V178.688H-0.5ZM-0.5 190.938V194H0.5V190.938H-0.5ZM0 194.5H3.07031V193.5H0V194.5ZM9.21094 194.5H15.3516V193.5H9.21094V194.5ZM21.4922 194.5H27.6328V193.5H21.4922V194.5ZM33.7734 194.5H39.9141V193.5H33.7734V194.5ZM46.0547 194.5H52.1953V193.5H46.0547V194.5ZM58.3359 194.5H64.4766V193.5H58.3359V194.5ZM70.6172 194.5H76.7578V193.5H70.6172V194.5ZM82.8984 194.5H89.0391V193.5H82.8984V194.5ZM95.1797 194.5H101.32V193.5H95.1797V194.5ZM107.461 194.5H113.602V193.5H107.461V194.5ZM119.742 194.5H125.883V193.5H119.742V194.5ZM132.023 194.5H138.164V193.5H132.023V194.5ZM144.305 194.5H150.445V193.5H144.305V194.5ZM156.586 194.5H162.727V193.5H156.586V194.5ZM168.867 194.5H175.008V193.5H168.867V194.5ZM181.148 194.5H187.289V193.5H181.148V194.5ZM193.43 194.5H196.5V193.5H193.43V194.5ZM196.5 194.5H199.57V193.5H196.5V194.5ZM205.711 194.5H211.852V193.5H205.711V194.5ZM217.992 194.5H224.133V193.5H217.992V194.5ZM230.273 194.5H236.414V193.5H230.273V194.5ZM242.555 194.5H248.695V193.5H242.555V194.5ZM254.836 194.5H260.977V193.5H254.836V194.5ZM267.117 194.5H273.258V193.5H267.117V194.5ZM279.398 194.5H285.539V193.5H279.398V194.5ZM291.68 194.5H294.75V193.5H291.68V194.5ZM294.75 194.5H297.82V193.5H294.75V194.5ZM303.961 194.5H310.102V193.5H303.961V194.5ZM316.242 194.5H322.383V193.5H316.242V194.5ZM328.523 194.5H334.664V193.5H328.523V194.5ZM340.805 194.5H346.945V193.5H340.805V194.5ZM353.086 194.5H359.227V193.5H353.086V194.5ZM365.367 194.5H371.508V193.5H365.367V194.5ZM377.648 194.5H383.789V193.5H377.648V194.5ZM389.93 194.5H393V193.5H389.93V194.5ZM393.5 194V190.688H392.5V194H393.5ZM393.5 184.062V177.438H392.5V184.062H393.5ZM393.5 170.812V164.188H392.5V170.812H393.5ZM393.5 157.562V150.938H392.5V157.562H393.5ZM393.5 144.312V141H392.5V144.312H393.5ZM393.5 141V138.188H392.5V141H393.5ZM393.5 132.562V126.938H392.5V132.562H393.5ZM393.5 121.312V115.688H392.5V121.312H393.5ZM393.5 110.062V104.438H392.5V110.062H393.5ZM393.5 98.8125V96H392.5V98.8125H393.5ZM393.5 96V93.125H392.5V96H393.5ZM393.5 87.375V81.625H392.5V87.375H393.5ZM393.5 75.875V70.125H392.5V75.875H393.5ZM393.5 64.375V58.625H392.5V64.375H393.5ZM393.5 52.875V50H392.5V52.875H393.5ZM393 50H394V49H393V50ZM393 194V195H394V194H393ZM0 194H-1V195H0V194ZM0 17L-0.675725 16.2628L-1 16.5601V17H0ZM12 6V5H11.611L11.3243 5.26285L12 6ZM272.111 6L272.985 5.51436L272.7 5H272.111V6ZM296.556 50L295.681 50.4856L295.967 51H296.556V50ZM393 49H389.986V51H393V49ZM383.958 49H377.931V51H383.958V49ZM371.903 49H365.875V51H371.903V49ZM359.847 49H353.819V51H359.847V49ZM347.792 49H341.764V51H347.792V49ZM335.736 49H329.708V51H335.736V49ZM323.681 49H317.653V51H323.681V49ZM311.625 49H305.597V51H311.625V49ZM299.569 49H296.556V51H299.569V49ZM297.43 49.5144L295.902 46.7644L294.154 47.7356L295.681 50.4856L297.43 49.5144ZM292.846 41.2644L289.791 35.7644L288.043 36.7356L291.098 42.2356L292.846 41.2644ZM286.735 30.2644L283.68 24.7644L281.931 25.7356L284.987 31.2356L286.735 30.2644ZM280.624 19.2644L277.569 13.7644L275.82 14.7356L278.876 20.2356L280.624 19.2644ZM274.513 8.26436L272.985 5.51436L271.237 6.48564L272.765 9.23565L274.513 8.26436ZM272.111 5H268.8V7H272.111V5ZM262.179 5H255.557V7H262.179V5ZM248.936 5H245.625V7H248.936V5ZM245.625 5H242.555V7H245.625V5ZM236.414 5H230.273V7H236.414V5ZM224.133 5H217.992V7H224.133V5ZM211.852 5H205.711V7H211.852V5ZM199.57 5H196.5V7H199.57V5ZM196.5 5H193.43V7H196.5V5ZM187.289 5H181.148V7H187.289V5ZM175.008 5H168.867V7H175.008V5ZM162.727 5H156.586V7H162.727V5ZM150.445 5H144.305V7H150.445V5ZM138.164 5H132.023V7H138.164V5ZM125.883 5H119.742V7H125.883V5ZM113.602 5H107.461V7H113.602V5ZM101.32 5H98.25V7H101.32V5ZM98.25 5H95.1797V7H98.25V5ZM89.0391 5H82.8984V7H89.0391V5ZM76.7578 5H70.6172V7H76.7578V5ZM64.4766 5H58.3359V7H64.4766V5ZM52.1953 5H49.125V7H52.1953V5ZM49.125 5H46.0547V7H49.125V5ZM39.9141 5H33.7734V7H39.9141V5ZM27.6328 5H24.5625V7H27.6328V5ZM24.5625 5H21.4219V7H24.5625V5ZM15.1406 5H12V7H15.1406V5ZM11.3243 5.26285L8.32428 8.01285L9.67572 9.48715L12.6757 6.73715L11.3243 5.26285ZM2.32428 13.5128L-0.675725 16.2628L0.675725 17.7372L3.67572 14.9872L2.32428 13.5128ZM-1 17V19.875H1V17H-1ZM-1 25.625V28.5H1V25.625H-1ZM-1 28.5V31.3125H1V28.5H-1ZM-1 36.9375V42.5625H1V36.9375H-1ZM-1 48.1875V51H1V48.1875H-1ZM-1 51V53.8125H1V51H-1ZM-1 59.4375V65.0625H1V59.4375H-1ZM-1 70.6875V76.3125H1V70.6875H-1ZM-1 81.9375V87.5625H1V81.9375H-1ZM-1 93.1875V96H1V93.1875H-1ZM-1 96V99.0625H1V96H-1ZM-1 105.188V111.312H1V105.188H-1ZM-1 117.438V123.562H1V117.438H-1ZM-1 129.688V135.812H1V129.688H-1ZM-1 141.938V148.062H1V141.938H-1ZM-1 154.188V160.312H1V154.188H-1ZM-1 166.438V172.562H1V166.438H-1ZM-1 178.688V184.812H1V178.688H-1ZM-1 190.938V194H1V190.938H-1ZM0 195H3.07031V193H0V195ZM9.21094 195H15.3516V193H9.21094V195ZM21.4922 195H27.6328V193H21.4922V195ZM33.7734 195H39.9141V193H33.7734V195ZM46.0547 195H52.1953V193H46.0547V195ZM58.3359 195H64.4766V193H58.3359V195ZM70.6172 195H76.7578V193H70.6172V195ZM82.8984 195H89.0391V193H82.8984V195ZM95.1797 195H101.32V193H95.1797V195ZM107.461 195H113.602V193H107.461V195ZM119.742 195H125.883V193H119.742V195ZM132.023 195H138.164V193H132.023V195ZM144.305 195H150.445V193H144.305V195ZM156.586 195H162.727V193H156.586V195ZM168.867 195H175.008V193H168.867V195ZM181.148 195H187.289V193H181.148V195ZM193.43 195H196.5V193H193.43V195ZM196.5 195H199.57V193H196.5V195ZM205.711 195H211.852V193H205.711V195ZM217.992 195H224.133V193H217.992V195ZM230.273 195H236.414V193H230.273V195ZM242.555 195H248.695V193H242.555V195ZM254.836 195H260.977V193H254.836V195ZM267.117 195H273.258V193H267.117V195ZM279.398 195H285.539V193H279.398V195ZM291.68 195H294.75V193H291.68V195ZM294.75 195H297.82V193H294.75V195ZM303.961 195H310.102V193H303.961V195ZM316.242 195H322.383V193H316.242V195ZM328.523 195H334.664V193H328.523V195ZM340.805 195H346.945V193H340.805V195ZM353.086 195H359.227V193H353.086V195ZM365.367 195H371.508V193H365.367V195ZM377.648 195H383.789V193H377.648V195ZM389.93 195H393V193H389.93V195ZM394 194V190.688H392V194H394ZM394 184.062V177.438H392V184.062H394ZM394 170.812V164.188H392V170.812H394ZM394 157.562V150.938H392V157.562H394ZM394 144.312V141H392V144.312H394ZM394 141V138.188H392V141H394ZM394 132.562V126.938H392V132.562H394ZM394 121.312V115.688H392V121.312H394ZM394 110.062V104.438H392V110.062H394ZM394 98.8125V96H392V98.8125H394ZM394 96V93.125H392V96H394ZM394 87.375V81.625H392V87.375H394ZM394 75.875V70.125H392V75.875H394ZM394 64.375V58.625H392V64.375H394ZM394 52.875V50H392V52.875H394Z" fill="#AB750F" mask="url(#path-1-inside-1_112_1993)"/>
</g>
<path id="Subtract" d="M393 45L367.788 0H274L299.212 45H393Z" fill="#AB750F"/>
<g id="joined-draft">
<g id="Prize pool">
<path id="Union" fill-rule="evenodd" clip-rule="evenodd" d="M114.329 6.04199H17L26.4823 28.6341H114.329V28.5766H114.58L124.062 6.04204L114.329 6.04199Z" fill="#6C4B0E"/>
<path id="Union_2" fill-rule="evenodd" clip-rule="evenodd" d="M27.974 4H122.545L113.332 26.5345H113.088V26.5923H27.7305L18.5168 4.0002H27.974V4Z" fill="#2D2D2D"/>
</g>
<g id="logo-horizontal-white">
<g id="logo" clip-path="url(#clip0_112_1993)">
<path id="Union_3" fill-rule="evenodd" clip-rule="evenodd" d="M50.2402 10H51.2002H55.2802L59.0002 20.32L55.2802 22L54.5517 18.9038L54.5515 18.9038L53.96 16.39L53.9602 16.3899L53.3602 13.84L52.2101 17.1087L53.5103 16.5746L54.1018 19.0882L47.0747 21.9693L47.0002 22L47.0003 21.9998L47 22L47.0007 21.9987L49.9513 13.5683L52.4598 11.7401L50.4219 12.2236L50.9751 10.6431L50.2402 10ZM58.427 17.3149L57.5605 14.9112L59 14.32L58.427 17.3149Z" fill="#F5F1EE"/>
</g>
<path id="AERENA" d="M65.4115 19.5L65.1543 18.4314H63.5315L63.3143 19.5H61.6343L63.3772 13.2657L63.2401 12.8029H65.6001L67.5086 19.5H65.4115ZM64.2686 14.7686L63.7658 17.2657H64.8743L64.2686 14.7686ZM71.7855 19.5H67.734V12.8029H71.6997L71.5855 14.1514L69.6255 14.0943V15.3857H71.1683V16.7229L69.6255 16.6086V18.1286L71.7855 18.0714V19.5ZM74.1843 17.2714V19.5H72.2872V12.8029H73.0415C73.2243 12.8029 73.4967 12.7952 73.8586 12.78C74.2205 12.761 74.5196 12.7514 74.7558 12.7514C75.5786 12.7514 76.192 12.9324 76.5958 13.2943C77.0034 13.6562 77.2072 14.2105 77.2072 14.9571C77.2072 15.399 77.1101 15.7914 76.9158 16.1343C76.7253 16.4771 76.472 16.7495 76.1558 16.9514C76.3272 16.9933 76.4739 17.0905 76.5958 17.2429C76.7215 17.3952 76.8186 17.5762 76.8872 17.7857C76.9558 17.9914 77.0148 18.201 77.0643 18.4143C77.1177 18.6238 77.1767 18.8314 77.2415 19.0371C77.3101 19.2429 77.3843 19.3971 77.4643 19.5H75.3558C75.3139 19.4467 75.2815 19.2981 75.2586 19.0543C75.2358 18.8067 75.2034 18.5114 75.1615 18.1686C75.1234 17.8219 75.0682 17.5324 74.9958 17.3C74.9882 17.3 74.9786 17.3 74.9672 17.3C74.8948 17.3 74.8167 17.3 74.7329 17.3C74.6529 17.2962 74.5824 17.2924 74.5215 17.2886C74.4605 17.2848 74.3958 17.281 74.3272 17.2771C74.2624 17.2733 74.2148 17.2714 74.1843 17.2714ZM74.1843 16.2086H74.3672C74.4624 16.2086 74.5424 16.2048 74.6072 16.1971C74.672 16.1895 74.7424 16.1762 74.8186 16.1571C74.8986 16.1343 74.9634 16.1 75.0129 16.0543C75.0663 16.0086 75.1158 15.9495 75.1615 15.8771C75.2072 15.8048 75.2415 15.7114 75.2643 15.5971C75.2872 15.4829 75.2986 15.3495 75.2986 15.1971V14.7457C75.2986 14.4143 75.211 14.1838 75.0358 14.0543C74.8643 13.921 74.6167 13.8543 74.2929 13.8543H74.1843V16.2086ZM81.8803 19.5H77.8289V12.8029H81.7946L81.6803 14.1514L79.7203 14.0943V15.3857H81.2632V16.7229L79.7203 16.6086V18.1286L81.8803 18.0714V19.5ZM84.2164 19.5H82.3992V13.34L82.1192 12.8029H84.2221L85.2735 14.9743L86.2792 17.14L85.9992 14.5971V12.8029H87.8221V19.5H86.0792L84.7192 16.8543L83.8792 15.1971L84.2164 17.3914V19.5ZM91.8791 19.5L91.622 18.4314H89.9991L89.782 19.5H88.102L89.8448 13.2657L89.7077 12.8029H92.0677L93.9763 19.5H91.8791ZM90.7363 14.7686L90.2334 17.2657H91.342L90.7363 14.7686Z" fill="#F5F1EE"/>
</g>
</g>
<path id="Subtract_2" d="M9 6H0V14.25L9 6Z" fill="#AB750F"/>
</g>
<defs>
<clipPath id="clip0_112_1993">
<rect width="12" height="12" fill="white" transform="translate(47 10)"/>
</clipPath>
</defs>
</svg>

<svg xmlns="http://www.w3.org/2000/svg" width="393" height="194" fill="none" xmlns:v="https://vecta.io/nano"><mask id="A" fill="#fff"><path fill-rule="evenodd" d="M393 50v46 45 53h-98.25-98.25H0V96 51 28.5 17L12 6h12.563 24.563H98.25h98.25 49.125 26.486l24.445 44H393z"/></mask><g fill="#ab750f"><path d="M393 50h.5v-.5h-.5v.5zm0 144v.5h.5v-.5h-.5zM0 194h-.5v.5H0v-.5zM0 17l-.338-.369-.162.149V17H0zM12 6v-.5h-.194l-.143.131L12 6zm260.111 0l.437-.243-.143-.257h-.294V6zm24.445 44l-.438.243.143.257h.295V50zM393 49.5h-3.014v1H393v-1zm-9.042 0h-6.027v1h6.027v-1zm-12.055 0h-6.028v1h6.028v-1zm-12.056 0h-6.028v1h6.028v-1zm-12.055 0h-6.028v1h6.028v-1zm-12.056 0h-6.028v1h6.028v-1zm-12.055 0h-6.028v1h6.028v-1zm-12.056 0h-6.028v1h6.028v-1zm-12.056 0h-3.013v1h3.013v-1zm-2.576.257l-1.528-2.75-.874.486 1.527 2.75.875-.486zm-4.584-8.25l-3.055-5.5-.874.486 3.055 5.5.874-.486zm-6.111-11l-3.055-5.5-.875.486 3.056 5.5.874-.486zm-6.111-11l-3.055-5.5-.875.486 3.056 5.5.874-.486zm-6.111-11l-1.528-2.75-.874.486 1.528 2.75.874-.486zM272.111 5.5H268.8v1h3.311v-1zm-9.932 0h-6.622v1h6.622v-1zm-13.243 0h-3.311v1h3.311v-1zm-3.311 0h-3.07v1h3.07v-1zm-9.211 0h-6.141v1h6.141v-1zm-12.281 0h-6.141v1h6.141v-1zm-12.281 0h-6.141v1h6.141v-1zm-12.282 0h-3.07v1h3.07v-1zm-3.07 0h-3.07v1h3.07v-1zm-9.211 0h-6.141v1h6.141v-1zm-12.281 0h-6.141v1h6.141v-1zm-12.281 0h-6.141v1h6.141v-1zm-12.282 0h-6.14v1h6.14v-1zm-12.281 0h-6.141v1h6.141v-1zm-12.281 0h-6.141v1h6.141v-1zm-12.281 0h-6.141v1h6.141v-1zm-12.282 0h-3.07v1h3.07v-1zm-3.07 0h-3.07v1h3.07v-1zm-9.211 0h-6.141v1h6.141v-1zm-12.281 0h-6.141v1h6.141v-1zm-12.281 0h-6.141v1h6.141v-1zm-12.281 0h-3.07v1h3.07v-1zm-3.07 0h-3.07v1h3.07v-1zm-9.211 0h-6.141v1h6.141v-1zm-12.281 0h-3.07v1h3.07v-1zm-3.07 0h-3.141v1h3.141v-1zm-9.422 0H12v1h3.141v-1zm-3.478.131l-3 2.75.676.737 3-2.75-.676-.737zm-9 8.25l-3 2.75.676.737 3-2.75-.676-.737zM-.5 17v2.875h1V17h-1zm0 8.625V28.5h1v-2.875h-1zm0 2.875v2.813h1V28.5h-1zm0 8.438v5.625h1v-5.625h-1zm0 11.25V51h1v-2.812h-1zM-.5 51v2.813h1V51h-1zm0 8.438v5.625h1v-5.625h-1zm0 11.25v5.625h1v-5.625h-1zm0 11.25v5.625h1v-5.625h-1zm0 11.25V96h1v-2.812h-1zM-.5 96v3.063h1V96h-1zm0 9.188v6.124h1v-6.124h-1zm0 12.25v6.124h1v-6.124h-1zm0 12.25v6.124h1v-6.124h-1zm0 12.25v6.124h1v-6.124h-1zm0 12.25v6.124h1v-6.124h-1zm0 12.25v6.124h1v-6.124h-1zm0 12.25v6.124h1v-6.124h-1zm0 12.25V194h1v-3.062h-1zM0 194.5h3.07v-1H0v1zm9.211 0h6.141v-1H9.211v1zm12.281 0h6.141v-1h-6.141v1zm12.281 0h6.141v-1h-6.141v1zm12.281 0h6.141v-1h-6.141v1zm12.281 0h6.141v-1h-6.141v1zm12.281 0h6.141v-1h-6.141v1zm12.281 0h6.141v-1h-6.141v1zm12.281 0h6.14v-1h-6.14v1zm12.281 0h6.141v-1h-6.141v1zm12.281 0h6.141v-1h-6.141v1zm12.281 0h6.141v-1h-6.141v1zm12.282 0h6.14v-1h-6.14v1zm12.281 0h6.141v-1h-6.141v1zm12.281 0h6.141v-1h-6.141v1zm12.281 0h6.141v-1h-6.141v1zm12.282 0h3.07v-1h-3.07v1zm3.07 0h3.07v-1h-3.07v1zm9.211 0h6.141v-1h-6.141v1zm12.281 0h6.141v-1h-6.141v1zm12.281 0h6.141v-1h-6.141v1zm12.282 0h6.14v-1h-6.14v1zm12.281 0h6.141v-1h-6.141v1zm12.281 0h6.141v-1h-6.141v1zm12.281 0h6.141v-1h-6.141v1zm12.282 0h3.07v-1h-3.07v1zm3.07 0h3.07v-1h-3.07v1zm9.211 0h6.141v-1h-6.141v1zm12.281 0h6.141v-1h-6.141v1zm12.281 0h6.141v-1h-6.141v1zm12.282 0h6.14v-1h-6.14v1zm12.281 0h6.141v-1h-6.141v1zm12.281 0h6.141v-1h-6.141v1zm12.281 0h6.141v-1h-6.141v1zm12.282 0H393v-1h-3.07v1zm3.57-.5v-3.312h-1V194h1zm0-9.938v-6.624h-1v6.624h1zm0-13.25v-6.624h-1v6.624h1zm0-13.25v-6.624h-1v6.624h1zm0-13.25V141h-1v3.312h1zm0-3.312v-2.812h-1V141h1zm0-8.438v-5.624h-1v5.624h1zm0-11.25v-5.624h-1v5.624h1zm0-11.25v-5.624h-1v5.624h1zm0-11.249V96h-1v2.813h1zm0-2.812v-2.875h-1V96h1zm0-8.625v-5.75h-1v5.75h1zm0-11.5v-5.75h-1v5.75h1zm0-11.5v-5.75h-1v5.75h1zm0-11.5V50h-1v2.875h1zM393 50h1v-1h-1v1zm0 144v1h1v-1h-1zM0 194h-1v1h1v-1zM0 17l-.676-.737-.324.297V17h1zM12 6V5h-.389l-.287.263L12 6zm260.111 0l.874-.486L272.7 5h-.589v1zm24.445 44l-.875.486.286.514h.589v-1zM393 49h-3.014v2H393v-2zm-9.042 0h-6.027v2h6.027v-2zm-12.055 0h-6.028v2h6.028v-2zm-12.056 0h-6.028v2h6.028v-2zm-12.055 0h-6.028v2h6.028v-2zm-12.056 0h-6.028v2h6.028v-2zm-12.055 0h-6.028v2h6.028v-2zm-12.056 0h-6.028v2h6.028v-2zm-12.056 0h-3.013v2h3.013v-2zm-2.139.514l-1.528-2.75-1.748.971 1.527 2.75 1.749-.971zm-4.584-8.25l-3.055-5.5-1.748.971 3.055 5.5 1.748-.971zm-6.111-11l-3.055-5.5-1.749.971 3.056 5.5 1.748-.971zm-6.111-11l-3.055-5.5-1.749.971 3.056 5.5 1.748-.971zm-6.111-11l-1.528-2.75-1.748.971 1.528 2.75 1.748-.971zM272.111 5H268.8v2h3.311V5zm-9.932 0h-6.622v2h6.622V5zm-13.243 0h-3.311v2h3.311V5zm-3.311 0h-3.07v2h3.07V5zm-9.211 0h-6.141v2h6.141V5zm-12.281 0h-6.141v2h6.141V5zm-12.281 0h-6.141v2h6.141V5zM199.57 5h-3.07v2h3.07V5zm-3.07 0h-3.07v2h3.07V5zm-9.211 0h-6.141v2h6.141V5zm-12.281 0h-6.141v2h6.141V5zm-12.281 0h-6.141v2h6.141V5zm-12.282 0h-6.14v2h6.14V5zm-12.281 0h-6.141v2h6.141V5zm-12.281 0h-6.141v2h6.141V5zm-12.281 0h-6.141v2h6.141V5zM101.32 5h-3.07v2h3.07V5zm-3.07 0h-3.07v2h3.07V5zm-9.211 0h-6.141v2h6.141V5zM76.758 5h-6.141v2h6.141V5zM64.477 5h-6.141v2h6.141V5zM52.195 5h-3.07v2h3.07V5zm-3.07 0h-3.07v2h3.07V5zm-9.211 0h-6.141v2h6.141V5zM27.633 5h-3.07v2h3.07V5zm-3.07 0h-3.141v2h3.141V5zm-9.422 0H12v2h3.141V5zm-3.816.263l-3 2.75 1.351 1.474 3-2.75-1.351-1.474zm-9 8.25l-3 2.75 1.351 1.474 3-2.75-1.351-1.474zM-1 17v2.875h2V17h-2zm0 8.625V28.5h2v-2.875h-2zm0 2.875v2.813h2V28.5h-2zm0 8.438v5.625h2v-5.625h-2zm0 11.25V51h2v-2.812h-2zM-1 51v2.813h2V51h-2zm0 8.438v5.625h2v-5.625h-2zm0 11.25v5.625h2v-5.625h-2zm0 11.25v5.625h2v-5.625h-2zm0 11.25V96h2v-2.812h-2zM-1 96v3.063h2V96h-2zm0 9.188v6.124h2v-6.124h-2zm0 12.25v6.124h2v-6.124h-2zm0 12.25v6.124h2v-6.124h-2zm0 12.25v6.124h2v-6.124h-2zm0 12.25v6.124h2v-6.124h-2zm0 12.25v6.124h2v-6.124h-2zm0 12.25v6.124h2v-6.124h-2zm0 12.25V194h2v-3.062h-2zM0 195h3.07v-2H0v2zm9.211 0h6.141v-2H9.211v2zm12.281 0h6.141v-2h-6.141v2zm12.281 0h6.141v-2h-6.141v2zm12.281 0h6.141v-2h-6.141v2zm12.281 0h6.141v-2h-6.141v2zm12.281 0h6.141v-2h-6.141v2zm12.281 0h6.141v-2h-6.141v2zm12.281 0h6.14v-2h-6.14v2zm12.281 0h6.141v-2h-6.141v2zm12.281 0h6.141v-2h-6.141v2zm12.281 0h6.141v-2h-6.141v2zm12.282 0h6.14v-2h-6.14v2zm12.281 0h6.141v-2h-6.141v2zm12.281 0h6.141v-2h-6.141v2zm12.281 0h6.141v-2h-6.141v2zm12.282 0h3.07v-2h-3.07v2zm3.07 0h3.07v-2h-3.07v2zm9.211 0h6.141v-2h-6.141v2zm12.281 0h6.141v-2h-6.141v2zm12.281 0h6.141v-2h-6.141v2zm12.282 0h6.14v-2h-6.14v2zm12.281 0h6.141v-2h-6.141v2zm12.281 0h6.141v-2h-6.141v2zm12.281 0h6.141v-2h-6.141v2zm12.282 0h3.07v-2h-3.07v2zm3.07 0h3.07v-2h-3.07v2zm9.211 0h6.141v-2h-6.141v2zm12.281 0h6.141v-2h-6.141v2zm12.281 0h6.141v-2h-6.141v2zm12.282 0h6.14v-2h-6.14v2zm12.281 0h6.141v-2h-6.141v2zm12.281 0h6.141v-2h-6.141v2zm12.281 0h6.141v-2h-6.141v2zm12.282 0H393v-2h-3.07v2zm4.07-1v-3.312h-2V194h2zm0-9.938v-6.624h-2v6.624h2zm0-13.25v-6.624h-2v6.624h2zm0-13.25v-6.624h-2v6.624h2zm0-13.25V141h-2v3.312h2zm0-3.312v-2.812h-2V141h2zm0-8.438v-5.624h-2v5.624h2zm0-11.25v-5.624h-2v5.624h2zm0-11.25v-5.624h-2v5.624h2zm0-11.249V96h-2v2.813h2zM394 96v-2.875h-2V96h2zm0-8.625v-5.75h-2v5.75h2zm0-11.5v-5.75h-2v5.75h2zm0-11.5v-5.75h-2v5.75h2zm0-11.5V50h-2v2.875h2z" mask="url(#A)"/><path d="M393 45L367.788 0H274l25.212 45H393z"/></g><g fill-rule="evenodd"><path d="M114.329 6.042H17l9.482 22.592h87.847v-.058h.251l9.482-22.535h-9.733z" fill="#6c4b0e"/><path d="M27.974 4h94.571l-9.213 22.535h-.244v.058H27.73L18.517 4h9.457 0z" fill="#2d2d2d"/></g><g clip-path="url(#B)"><path fill-rule="evenodd" d="M50.24 10h.96 4.08L59 20.32 55.28 22l-.729-3.096h0l-.591-2.514h0l-.6-2.55-1.15 3.269 1.3-.534.591 2.514-7.027 2.881L47 22h0 0l.001-.001 2.951-8.43 2.508-1.828-2.038.483.553-1.58L50.24 10zm8.187 7.315l-.867-2.404L59 14.32l-.573 2.995z" fill="#f5f1ee"/></g><path d="M65.411 19.5l-.257-1.069h-1.623l-.217 1.069h-1.68l1.743-6.234-.137-.463h2.36l1.909 6.697h-2.097zm-1.143-4.731l-.503 2.497h1.109l-.606-2.497zm7.517 4.731h-4.051v-6.697H71.7l-.114 1.349-1.96-.057v1.291h1.543v1.337l-1.543-.114v1.52l2.16-.057V19.5zm2.399-2.229V19.5h-1.897v-6.697h.754l.817-.023.897-.029c.823 0 1.436.181 1.84.543s.611.916.611 1.663c0 .442-.097.834-.291 1.177a2.24 2.24 0 0 1-.76.817.8.8 0 0 1 .44.291 1.65 1.65 0 0 1 .291.543l.177.629.177.623c.069.206.143.36.223.463h-2.109c-.042-.053-.074-.202-.097-.446l-.097-.886c-.038-.347-.093-.636-.166-.869h-.029-.234l-.212-.011-.194-.011-.143-.006zm0-1.063h.183l.24-.012a1.68 1.68 0 0 0 .211-.04c.08-.023.145-.057.194-.103a.78.78 0 0 0 .148-.177c.046-.072.08-.166.103-.28s.034-.248.034-.4v-.451c0-.331-.088-.562-.263-.691s-.419-.2-.743-.2h-.109v2.354zM81.88 19.5h-4.051v-6.697h3.966l-.114 1.349-1.96-.057v1.291h1.543v1.337l-1.543-.114v1.52l2.16-.057V19.5zm2.336 0h-1.817v-6.16l-.28-.537h2.103l1.052 2.171 1.006 2.166-.28-2.543v-1.794h1.823V19.5h-1.743l-1.36-2.646-.84-1.657.337 2.194V19.5zm7.663 0l-.257-1.069h-1.623l-.217 1.069h-1.68l1.743-6.234-.137-.463h2.36l1.909 6.697h-2.097zm-1.143-4.731l-.503 2.497h1.109l-.606-2.497z" fill="#f5f1ee"/><path d="M9 6H0v8.25L9 6z" fill="#ab750f"/><defs><clipPath id="B"><path fill="#fff" transform="translate(47 10)" d="M0 0h12v12H0z"/></clipPath></defs></svg>
